X: 28123
T: Mrs Cole
R: reel
M: 4/4
K: Bminor
d2 d/c/B f2 f2|g2 fe f2 b2|a2f2 g2f2|e2de f4|
de d2 c2 f2|de d2 c2 f2|B3B ^ABcB|=A2F2 F4|
F2B2 B^ABc|d2 =A2 d4|e4 edef|g2ag f4|
b2fe d2f2|edcB A2F2|fedf edce|d2 cB B4||
FEDF BFDE|F2 F2 F4:|
|:d2 cd B2 B2|BAFA B3c|dcBA cde2|edcB def2|
f2b2 b2a2|afed e4|edef efef|b2B2 B4|
dcde dede|a2A2 A4|f2ed c2c2|edcB A2F2|
fedf edce|d2 cB B4|1 FEDF BFDE|F2 F2 F4:|
[2 FEDF EDGE|F2F2 B4||

